svg/fluentui-system-icons/ic_fluent_checkbox_arrow_right_24_filled.svg

<svg width="24" height="24" viewBox="0 0 24 24" fill="none" xmlns="http://www.w3.org/2000/svg">
<path d="M5.25 2C3.45507 2 2 3.45508 2 5.25V16.75C2 18.5449 3.45508 20 5.25 20H11.4982C11.1772 19.2304 11 18.3859 11 17.5C11 13.9101 13.9101 11 17.5 11C18.3859 11 19.2304 11.1772 20 11.4982V5.25C20 3.45507 18.5449 2 16.75 2H5.25ZM16.28 8.28064L9.52628 15.0266C9.23333 15.3192 8.75868 15.319 8.46591 15.0262L5.72014 12.2803C5.42726 11.9874 5.42727 11.5125 5.72018 11.2196C6.01308 10.9268 6.48795 10.9268 6.78084 11.2197L8.99658 13.4356L15.22 7.21936C15.513 6.92664 15.9879 6.92691 16.2806 7.21998C16.5734 7.51304 16.5731 7.98791 16.28 8.28064ZM17.5 12C20.5376 12 23 14.4624 23 17.5C23 20.5376 20.5376 23 17.5 23C14.4624 23 12 20.5376 12 17.5C12 14.4624 14.4624 12 17.5 12ZM14.5 17C14.2239 17 14 17.2239 14 17.5C14 17.7761 14.2239 18 14.5 18H19.2929L17.6464 19.6464C17.4512 19.8417 17.4512 20.1583 17.6464 20.3536C17.8417 20.5488 18.1583 20.5488 18.3536 20.3536L20.8536 17.8536C21.0488 17.6583 21.0488 17.3417 20.8536 17.1464L18.3536 14.6464C18.1583 14.4512 17.8417 14.4512 17.6464 14.6464C17.4512 14.8417 17.4512 15.1583 17.6464 15.3536L19.2929 17H14.5Z" fill="#212121"/>
</svg>

<svg xmlns="http://www.w3.org/2000/svg" width="24" height="24"><path d="M5.25 2A3.25 3.25 0 0 0 2 5.25v11.5A3.25 3.25 0 0 0 5.25 20h6.248A6.5 6.5 0 0 1 20 11.498V5.25A3.25 3.25 0 0 0 16.75 2H5.25Zm11.03 6.28-6.754 6.747a.75.75 0 0 1-1.06 0L5.72 12.28a.75.75 0 0 1 1.06-1.06l2.217 2.216 6.223-6.217a.75.75 0 1 1 1.06 1.062ZM17.5 12a5.5 5.5 0 1 1 0 11 5.5 5.5 0 0 1 0-11Zm-3 5a.5.5 0 0 0 0 1h4.793l-1.647 1.646a.5.5 0 0 0 .708.708l2.5-2.5a.5.5 0 0 0 0-.708l-2.5-2.5a.5.5 0 0 0-.708.708L19.293 17H14.5Z"/></svg>
